T: Veganites
M: 4/4
L: 1/8
K: Bmin
|:ABBB dBed|efff edBd|ABBB d2dB|e2ed efed|
ABBB dBed|efff edef|afff e2de|e2de edBA:|
efff ffff|ffff edBA|efff ffff|afed edBd|
ABBB dBBB|efed edBd|ABBB dBed|f8|
a2fe f2ed|e2dB dBA2|ABBB dBed|efff edBd|
ABBB dBBB|efed edBd|ABBB dBed| f8||
